icons/mobile/24/svg/tool-24.svg

<svg width="24" height="24" viewBox="0 0 24 24" fill="none" xmlns="http://www.w3.org/2000/svg">
<path fill-rule="evenodd" clip-rule="evenodd" d="M13.75 3.13126C13.75 2.34475 14.5858 1.72803 15.3711 2.11564L15.5703 2.21817C17.6087 3.31241 18.9999 5.46353 19 7.94474C19 10.2491 17.797 12.2675 15.9932 13.4203L15.9834 18.8813C15.9792 20.6043 14.5818 22.0002 12.8584 22.0004H12.1465C10.4243 22.0004 9.02565 20.6059 9.02148 18.8832L9.00781 13.4213C7.2029 12.2687 6 10.2503 6 7.94474C6.00014 5.3846 7.48234 3.17404 9.62891 2.11564L9.63086 2.11466C10.4162 1.72943 11.25 2.34477 11.25 3.13126V5.94474C11.25 6.63549 11.8092 7.19474 12.5 7.19474C13.1908 7.19474 13.75 6.63549 13.75 5.94474V3.13126ZM15.5 5.94474C15.5 7.60199 14.1572 8.94474 12.5 8.94474C10.8428 8.94474 9.5 7.60199 9.5 5.94474V4.26798C8.43219 5.13907 7.75011 6.46204 7.75 7.94474C7.75 9.65363 8.65365 11.1514 10.0127 11.9887L10.29 12.1469L10.3926 12.2104C10.6188 12.3728 10.7562 12.636 10.7568 12.9193L10.7715 18.8793C10.7735 19.6364 11.3887 20.2504 12.1465 20.2504H12.8584C13.6165 20.2502 14.2314 19.6368 14.2334 18.8783L14.2441 12.9193L14.2529 12.7992C14.2917 12.5233 14.4603 12.2791 14.7109 12.1469C16.2219 11.3498 17.25 9.76647 17.25 7.94474C17.2499 6.4611 16.5681 5.1379 15.5 4.267V5.94474Z" fill="black"/>
</svg>

<!-- This Source Code Form is subject to the terms of the Mozilla Public
   - License, v. 2.0. If a copy of the MPL was not distributed with this
   - file, You can obtain one at http://mozilla.org/MPL/2.0/. -->
<svg xmlns="http://www.w3.org/2000/svg" width="24" height="24" fill="none" viewBox="0 0 24 24">
    <path fill="#000" fill-rule="evenodd" d="M13.75 3.131c0-.786.836-1.403 1.621-1.015l.2.102a6.49 6.49 0 0 1 .423 11.202l-.01 5.461a3.126 3.126 0 0 1-3.126 3.12h-.712a3.125 3.125 0 0 1-3.125-3.118l-.013-5.462A6.49 6.49 0 0 1 6 7.945a6.5 6.5 0 0 1 3.629-5.83h.002c.785-.386 1.619.23 1.619 1.016v2.814a1.25 1.25 0 1 0 2.5 0zm1.75 2.814a3 3 0 1 1-6 0V4.268a4.743 4.743 0 0 0 .513 7.72l.277.159.103.063a.88.88 0 0 1 .364.71l.014 5.96a1.375 1.375 0 0 0 1.375 1.37h.712c.758 0 1.373-.613 1.375-1.372l.011-5.959.009-.12a.88.88 0 0 1 .458-.652 4.75 4.75 0 0 0 2.539-4.202 4.73 4.73 0 0 0-1.75-3.678z" clip-rule="evenodd" />
</svg>
